X:1
T:Title
%%score 1 2
L:1/8
Q:1/4=160
M:2/2
K:D
V:1 treble nm="Strings 1, Soprano"
V:2 bass nm="Strings 1, Bass"
V:1
 z4 z2 [FA]2 | [FA]4 [DF]2 [EG]2 | [FA]4 [=F^G]2 [^FA]2 | [Fd]4 [Ac]2 [GB]2 | [FA]6 [FA]2 | %5
w: 1.~The~|Li on~ of~|Ju dah,~ the~|Lamb~ that~ was~|slain,~ In~|
 [FA]4 [GB]2 [FA]2 | [DF]4 D2 D2 | [CE]4 [CE]2 [DF]2 | [CE]6 D2 | [DF]4 [DE]2 D2 | %10
w: pow er~ and~|glo ry~ has~|ris en~ to~|reign;~ He~|on ly~ is~|
 [FA]4 [FA]2 [FA]2 | [GB]4 [GB]2 [Gc]2 | [Fd]6 [Fd]2 | [Fd]4 [Ac]2 [GB]2 | [FA]4 [DF]2 D2 | %15
w: wor thy,~ none~|else~ could~ pre|vail~ To~|con quer~ the~|dra gon~ and~|
 [DF]4 [CF]3 [CE] | D6 D2 | [DF]4 [DF]2 [CE]2 | D4 D2 [DF]2 | [FA]3 [FA] [FA]2 [EG]2 | %20
w: o pen~ the~|seal.~ *||||
 [DF]6 [FA]2 | [Fd]4 [Ac]2 [GB]2 | [FA]4 D2 [CE]2 | [DF]4 [EG]2 [DF]2 | [CE]6 D2 | %25
w: |||||
 [DF]4 [DF]2 [CE]2 | D4 D2 [DF]2 | [FA]3 [FA] [FA]2 [EG]2 | [DF]6 [FA]2 | [Fd]4 [Ac]2 [GB]2 | %30
w: |||||
 [FA]4 D2 [DE]2 | [DF]4 [CF]3 [CE] | D8 |] %33
w: |||
V:2
 z4 z2 [D,D]2 | [D,D]4 [D,A,]2 [D,A,]2 | [D,D]4 [D,D]2 [D,D]2 | [D,A,]4 [D,B,]2 [D,C]2 | %4
 [D,D]6 [D,D]2 | [D,D]4 [D,D]2 [D,D]2 | [D,A,]4 [D,F,]2 [D,F,]2 | [A,,A,]4 [A,,A,]2 [A,,A,]2 | %8
 [A,,A,]6 [D,F,]2 | [D,A,]4 [D,G,]2 [D,F,]2 | [D,D]4 [D,D]2 [D,D]2 | [G,D]4 [G,D]2 [E,A,]2 | %12
 [D,A,]6 [D,A,]2 | [D,A,]4 [D,D]2 [D,D]2 | [D,D]4 [D,A,]2 [F,A,]2 | A,4 [A,,A,]3 [A,,G,] | %16
 [D,F,]6 [D,F,]2 | [D,A,]4 [D,A,]2 [A,,G,]2 | [D,F,]4 [D,F,]2 [D,A,]2 | %19
 [D,D]3 [D,D] [D,A,]2 [A,,A,]2 | [D,A,]6 [D,A,]2 | [D,A,]4 [D,A,]2 [D,D]2 | %22
 [D,D]4 [F,A,]2 [E,A,]2 | [D,A,]4 [C,A,]2 [D,A,]2 | [A,,A,]6 [D,F,]2 | [D,A,]4 [D,A,]2 [A,,G,]2 | %26
 [D,F,]4 [D,F,]2 [D,A,]2 | [D,D]3 [D,D] [D,A,]2 [A,,A,]2 | [D,A,]6 [D,A,]2 | %29
 [D,A,]4 [D,A,]2 [D,D]2 | [D,D]4 [F,A,]2 [G,B,]2 | A,4 [A,,A,]3 [A,,G,] | [D,F,]8 |] %33

